static/img/menus/ico-edit2.svg

<svg width="16" height="16" viewBox="0 0 16 16" fill="none" xmlns="http://www.w3.org/2000/svg">
<mask id="path-1-inside-1_1552_17" fill="white">
<path d="M13 10.0365C13 10.3043 12.8926 10.5609 12.7019 10.7488L9.40384 13.9985C9.40361 13.9987 9.40372 13.9991 9.40402 13.9992V13.9992C9.40449 13.9993 9.4044 14 9.40392 14H2.81192C2.36351 14 2 13.6365 2 13.1881V2C2 1.44772 2.44772 1 3 1H12C12.5523 1 13 1.44772 13 2V10.0365Z"/>
</mask>
<path d="M9.40384 13.9985L8.70197 13.2862L9.40384 13.9985ZM12.7019 10.7488L12 10.0365L12.7019 10.7488ZM12.7019 10.7488L12 10.0365L8.70197 13.2862L9.40384 13.9985L10.1057 14.7108L13.4037 11.4612L12.7019 10.7488ZM9.40392 14V13H2.81192V14V15H9.40392V14ZM2 13.1881H3V2H2H1V13.1881H2ZM3 1V2H12V1V0H3V1ZM13 2H12V10.0365H13H14V2H13ZM12 1V2L12 2H13H14C14 0.895431 13.1046 0 12 0V1ZM2 2H3L3 2V1V0C1.89543 0 1 0.89543 1 2H2ZM2.81192 14V13C2.91579 13 3 13.0842 3 13.1881H2H1C1 14.1888 1.81122 15 2.81192 15V14ZM9.40402 13.9992L9.16149 14.9693C8.0179 14.6834 8.22515 13 9.40392 13V14V15C10.5837 15 10.7911 13.3152 9.64656 13.0291L9.40402 13.9992ZM9.40384 13.9985L8.70197 13.2862C8.14631 13.8337 8.40309 14.7797 9.16149 14.9693L9.40402 13.9992L9.64656 13.0291C10.4043 13.2185 10.6609 14.1638 10.1057 14.7108L9.40384 13.9985ZM12.7019 10.7488L13.4037 11.4612C13.7852 11.0853 14 10.5721 14 10.0365H13H12L12 10.0365L12.7019 10.7488Z" fill="currentColor" mask="url(#path-1-inside-1_1552_17)"/>
<path d="M11.166 8.25V8.9834H8.2334V11.916H7.5V8.25H11.166Z" fill="currentColor"/>
<rect x="4" y="7" width="3" height="1" fill="currentColor"/>
<rect x="4" y="5" width="7" height="1" fill="currentColor"/>
<rect x="4" y="3" width="7" height="1" fill="currentColor"/>
</svg>

<svg xmlns="http://www.w3.org/2000/svg" width="16" height="16" fill="none" viewBox="0 0 16 16"><mask id="a" fill="#fff"><path d="M13 10.037a1 1 0 0 1-.298.712l-3.298 3.25V14H2.812A.81.81 0 0 1 2 13.188V2a1 1 0 0 1 1-1h9a1 1 0 0 1 1 1z"/></mask><path fill="currentColor" d="m9.404 13.999-.702-.713zm3.298-3.25L12 10.036zm0 0L12 10.036l-3.298 3.25.702.713.702.712 3.298-3.25zM9.404 14v-1H2.812v2h6.592zM2 13.188h1V2H1v11.188zM3 1v1h9V0H3zm10 1h-1v8.037h2V2zm-1-1v1h2a2 2 0 0 0-2-2zM2 2h1V0a2 2 0 0 0-2 2zm.812 12v-1c.104 0 .188.084.188.188H1c0 1 .811 1.812 1.812 1.812zm6.592 0-.243.97c-1.143-.287-.936-1.97.243-1.97zv1c1.18 0 1.387-1.685.243-1.97zm0-.002-.702-.712a1 1 0 0 0 .46 1.683l.242-.97.243-.97a1 1 0 0 1 .459 1.682zm3.298-3.25.702.713A2 2 0 0 0 14 10.037h-2z" mask="url(#a)"/><path fill="currentColor" d="M11.166 8.25v.733H8.233v2.933H7.5V8.25zM4 7h3v1H4zM4 5h7v1H4zM4 3h7v1H4z"/></svg>
